flaticon/weather/moon-6.svg

<svg xmlns="http://www.w3.org/2000/svg" width="32" height="32" viewBox="0 0 24 24">
    <path d="M 12 0 C 11.222656 0 10.464844 0.078125 9.730469 0.21875 L 9.722656 0.214844 L 9.644531 0.234375 C 9.636719 0.234375 9.628906 0.234375 9.621094 0.238281 C 9.550781 0.253906 9.480469 0.269531 9.410156 0.285156 C 9.292969 0.3125 9.171875 0.335938 9.058594 0.367188 C 8.996094 0.382812 8.933594 0.398438 8.871094 0.417969 C 8.746094 0.449219 8.621094 0.484375 8.496094 0.523438 C 8.445312 0.539062 8.394531 0.554688 8.339844 0.570312 C 8.207031 0.617188 8.070312 0.660156 7.9375 0.707031 C 7.898438 0.722656 7.859375 0.738281 7.820312 0.75 C 7.671875 0.808594 7.523438 0.867188 7.378906 0.925781 C 7.351562 0.9375 7.328125 0.945312 7.304688 0.957031 C 7.136719 1.027344 6.96875 1.105469 6.800781 1.183594 C 6.101562 1.523438 5.441406 1.925781 4.828125 2.386719 C 4.824219 2.386719 4.820312 2.390625 4.816406 2.390625 C 4.675781 2.5 4.535156 2.609375 4.398438 2.722656 C 4.375 2.742188 4.351562 2.761719 4.328125 2.78125 C 4.214844 2.875 4.101562 2.972656 3.992188 3.074219 C 3.953125 3.105469 3.917969 3.136719 3.882812 3.171875 C 3.789062 3.257812 3.695312 3.347656 3.605469 3.4375 C 3.558594 3.480469 3.511719 3.527344 3.46875 3.570312 C 3.390625 3.648438 3.316406 3.730469 3.242188 3.808594 C 3.1875 3.867188 3.132812 3.921875 3.082031 3.980469 C 3.027344 4.042969 2.976562 4.101562 2.925781 4.164062 C 2.527344 4.621094 2.167969 5.109375 1.84375 5.621094 C 1.839844 5.625 1.839844 5.628906 1.835938 5.628906 C 1.75 5.769531 1.664062 5.910156 1.582031 6.054688 C 1.582031 6.058594 1.578125 6.066406 1.574219 6.070312 C 1.003906 7.070312 0.570312 8.160156 0.308594 9.316406 C 0.296875 9.355469 0.289062 9.394531 0.28125 9.433594 C 0.253906 9.554688 0.230469 9.675781 0.207031 9.800781 C 0.191406 9.867188 0.183594 9.929688 0.171875 9.996094 C 0.152344 10.105469 0.136719 10.214844 0.121094 10.324219 C 0.109375 10.410156 0.0976562 10.496094 0.0859375 10.582031 C 0.0742188 10.675781 0.0664062 10.769531 0.0546875 10.867188 C 0.0429688 10.976562 0.0390625 11.089844 0.03125 11.203125 C 0.0234375 11.277344 0.0195312 11.351562 0.015625 11.425781 C 0.00390625 11.617188 0 11.808594 0 12 C 0 12.191406 0.00390625 12.382812 0.015625 12.574219 C 0.0195312 12.648438 0.0234375 12.722656 0.03125 12.796875 C 0.0351562 12.910156 0.0429688 13.023438 0.0546875 13.132812 C 0.0625 13.230469 0.0742188 13.324219 0.0859375 13.417969 C 0.0976562 13.503906 0.109375 13.589844 0.121094 13.679688 C 0.136719 13.785156 0.152344 13.894531 0.171875 14.003906 C 0.183594 14.070312 0.191406 14.132812 0.207031 14.199219 C 0.230469 14.324219 0.253906 14.445312 0.28125 14.570312 C 0.289062 14.609375 0.296875 14.648438 0.304688 14.683594 C 0.570312 15.839844 1.003906 16.929688 1.574219 17.929688 C 1.578125 17.933594 1.578125 17.941406 1.582031 17.945312 C 1.664062 18.089844 1.75 18.230469 1.835938 18.371094 C 1.839844 18.371094 1.839844 18.375 1.84375 18.378906 C 2.167969 18.890625 2.527344 19.378906 2.921875 19.835938 C 2.976562 19.898438 3.027344 19.957031 3.082031 20.019531 C 3.132812 20.078125 3.1875 20.132812 3.242188 20.191406 C 3.316406 20.269531 3.390625 20.351562 3.46875 20.429688 C 3.511719 20.472656 3.558594 20.519531 3.601562 20.5625 C 3.695312 20.652344 3.789062 20.742188 3.882812 20.828125 C 3.917969 20.863281 3.953125 20.894531 3.992188 20.925781 C 4.101562 21.027344 4.214844 21.125 4.328125 21.21875 C 4.351562 21.238281 4.375 21.257812 4.398438 21.277344 C 4.535156 21.390625 4.675781 21.5 4.816406 21.609375 C 4.820312 21.609375 4.824219 21.613281 4.828125 21.617188 C 5.441406 22.074219 6.101562 22.476562 6.800781 22.816406 C 6.96875 22.894531 7.136719 22.972656 7.304688 23.042969 C 7.328125 23.054688 7.351562 23.0625 7.375 23.074219 C 7.523438 23.132812 7.671875 23.191406 7.820312 23.25 C 7.859375 23.261719 7.898438 23.277344 7.9375 23.292969 C 8.070312 23.339844 8.207031 23.382812 8.339844 23.429688 C 8.394531 23.445312 8.445312 23.460938 8.496094 23.476562 C 8.621094 23.515625 8.746094 23.550781 8.871094 23.582031 C 8.933594 23.601562 8.996094 23.617188 9.058594 23.632812 C 9.171875 23.664062 9.289062 23.691406 9.410156 23.714844 C 9.480469 23.730469 9.550781 23.746094 9.621094 23.761719 C 9.628906 23.765625 9.636719 23.765625 9.644531 23.765625 L 9.722656 23.785156 L 9.730469 23.78125 C 10.464844 23.921875 11.222656 24 12 24 C 18.617188 24 24 18.617188 24 12 C 24 5.382812 18.617188 0 12 0 Z M 18.621094 12 C 18.621094 17.285156 14.882812 21.871094 9.726562 22.9375 C 9.71875 22.9375 9.710938 22.933594 9.703125 22.933594 C 9.417969 22.875 9.140625 22.800781 8.863281 22.722656 C 8.820312 22.707031 8.773438 22.695312 8.730469 22.683594 C 8.472656 22.605469 8.222656 22.515625 7.976562 22.417969 C 7.90625 22.390625 7.835938 22.363281 7.765625 22.335938 C 7.53125 22.242188 7.304688 22.140625 7.082031 22.027344 C 7.007812 21.992188 6.929688 21.953125 6.855469 21.914062 C 6.636719 21.796875 6.421875 21.679688 6.210938 21.554688 C 6.148438 21.515625 6.089844 21.472656 6.027344 21.433594 C 5.847656 21.320312 5.667969 21.199219 5.496094 21.074219 C 5.441406 21.035156 5.382812 20.996094 5.328125 20.957031 C 5.125 20.804688 4.929688 20.644531 4.734375 20.476562 C 4.683594 20.433594 4.628906 20.386719 4.578125 20.34375 C 4.382812 20.167969 4.195312 19.988281 4.011719 19.800781 C 3.976562 19.761719 3.941406 19.726562 3.90625 19.691406 C 3.714844 19.484375 3.523438 19.273438 3.34375 19.054688 C 3.339844 19.050781 3.339844 19.046875 3.335938 19.042969 C 2.941406 18.558594 2.589844 18.046875 2.28125 17.503906 C 2.28125 17.503906 2.28125 17.5 2.28125 17.5 C 1.671875 16.421875 1.234375 15.238281 1.007812 13.992188 C 1.003906 13.960938 0.996094 13.929688 0.992188 13.898438 C 0.941406 13.613281 0.902344 13.320312 0.875 13.027344 C 0.871094 12.988281 0.871094 12.945312 0.867188 12.90625 C 0.84375 12.605469 0.828125 12.304688 0.828125 12 C 0.828125 11.695312 0.84375 11.394531 0.867188 11.09375 C 0.871094 11.054688 0.871094 11.015625 0.875 10.976562 C 0.902344 10.679688 0.941406 10.390625 0.992188 10.101562 C 0.996094 10.070312 1.003906 10.039062 1.007812 10.007812 C 1.234375 8.761719 1.671875 7.578125 2.28125 6.5 C 2.28125 6.5 2.28125 6.5 2.28125 6.496094 C 2.589844 5.957031 2.941406 5.441406 3.335938 4.957031 C 3.335938 4.953125 3.339844 4.949219 3.34375 4.945312 C 3.523438 4.726562 3.710938 4.515625 3.90625 4.308594 C 3.941406 4.273438 3.976562 4.238281 4.011719 4.203125 C 4.195312 4.015625 4.382812 3.832031 4.578125 3.660156 C 4.628906 3.613281 4.683594 3.566406 4.734375 3.523438 C 4.929688 3.359375 5.125 3.195312 5.328125 3.042969 C 5.382812 3.003906 5.441406 2.964844 5.496094 2.925781 C 5.667969 2.800781 5.847656 2.679688 6.027344 2.566406 C 6.089844 2.527344 6.148438 2.488281 6.210938 2.449219 C 6.421875 2.320312 6.636719 2.203125 6.855469 2.089844 C 6.929688 2.050781 7.007812 2.011719 7.082031 1.972656 C 7.304688 1.863281 7.53125 1.761719 7.765625 1.664062 C 7.835938 1.636719 7.90625 1.609375 7.976562 1.582031 C 8.222656 1.484375 8.472656 1.398438 8.730469 1.316406 C 8.773438 1.304688 8.820312 1.292969 8.863281 1.28125 C 9.140625 1.199219 9.417969 1.128906 9.703125 1.066406 C 9.710938 1.066406 9.71875 1.0625 9.722656 1.0625 C 14.882812 2.128906 18.621094 6.714844 18.621094 12 Z M 12 23.171875 C 11.945312 23.171875 11.894531 23.167969 11.84375 23.167969 C 16.351562 21.394531 19.449219 16.984375 19.449219 12 C 19.449219 9.183594 18.457031 6.550781 16.78125 4.472656 C 16.890625 4.398438 16.964844 4.277344 16.964844 4.136719 C 16.964844 3.910156 16.78125 3.722656 16.550781 3.722656 C 16.433594 3.722656 16.328125 3.777344 16.25 3.855469 C 15.90625 3.484375 15.539062 3.132812 15.148438 2.804688 C 15.242188 2.726562 15.308594 2.613281 15.308594 2.484375 C 15.308594 2.253906 15.125 2.070312 14.898438 2.070312 C 14.730469 2.070312 14.589844 2.167969 14.523438 2.308594 C 13.703125 1.710938 12.804688 1.210938 11.84375 0.832031 C 11.894531 0.832031 11.945312 0.828125 12 0.828125 C 14.121094 0.828125 16.105469 1.421875 17.800781 2.453125 C 17.796875 2.464844 17.792969 2.472656 17.792969 2.484375 C 17.792969 2.710938 17.976562 2.898438 18.207031 2.898438 C 18.277344 2.898438 18.335938 2.875 18.394531 2.847656 C 18.820312 3.144531 19.222656 3.46875 19.601562 3.824219 C 19.511719 3.898438 19.449219 4.007812 19.449219 4.136719 C 19.449219 4.367188 19.632812 4.550781 19.863281 4.550781 C 19.992188 4.550781 20.101562 4.488281 20.175781 4.398438 C 20.53125 4.777344 20.855469 5.179688 21.152344 5.605469 C 21.125 5.664062 21.101562 5.722656 21.101562 5.792969 C 21.101562 6.023438 21.289062 6.207031 21.515625 6.207031 C 21.527344 6.207031 21.535156 6.203125 21.546875 6.199219 C 22.308594 7.453125 22.832031 8.863281 23.050781 10.371094 C 22.882812 10.421875 22.757812 10.574219 22.757812 10.757812 C 22.757812 10.976562 22.925781 11.148438 23.136719 11.164062 C 23.160156 11.441406 23.171875 11.71875 23.171875 12 C 23.171875 12.570312 23.128906 13.132812 23.046875 13.679688 C 22.878906 13.734375 22.757812 13.886719 22.757812 14.070312 C 22.757812 14.199219 22.820312 14.308594 22.914062 14.382812 C 21.816406 19.402344 17.34375 23.171875 12 23.171875 Z M 12 23.171875"/>
    <path d="M16.964844 20.691406C16.964844 20.917969 16.78125 21.101562 16.550781 21.101562 16.324219 21.101562 16.136719 20.917969 16.136719 20.691406 16.136719 20.460938 16.324219 20.277344 16.550781 20.277344 16.78125 20.277344 16.964844 20.460938 16.964844 20.691406zM15.308594 22.34375C15.308594 22.574219 15.125 22.757812 14.898438 22.757812 14.667969 22.757812 14.484375 22.574219 14.484375 22.34375 14.484375 22.117188 14.667969 21.929688 14.898438 21.929688 15.125 21.929688 15.308594 22.117188 15.308594 22.34375zM18.621094 5.792969C18.621094 6.023438 18.433594 6.207031 18.207031 6.207031 17.976562 6.207031 17.792969 6.023438 17.792969 5.792969 17.792969 5.566406 17.976562 5.378906 18.207031 5.378906 18.433594 5.378906 18.621094 5.566406 18.621094 5.792969zM20.277344 7.449219C20.277344 7.675781 20.089844 7.863281 19.863281 7.863281 19.632812 7.863281 19.449219 7.675781 19.449219 7.449219 19.449219 7.21875 19.632812 7.035156 19.863281 7.035156 20.089844 7.035156 20.277344 7.21875 20.277344 7.449219zM20.277344 10.757812C20.277344 10.988281 20.089844 11.171875 19.863281 11.171875 19.632812 11.171875 19.449219 10.988281 19.449219 10.757812 19.449219 10.53125 19.632812 10.34375 19.863281 10.34375 20.089844 10.34375 20.277344 10.53125 20.277344 10.757812zM20.277344 14.070312C20.277344 14.296875 20.089844 14.484375 19.863281 14.484375 19.632812 14.484375 19.449219 14.296875 19.449219 14.070312 19.449219 13.839844 19.632812 13.65625 19.863281 13.65625 20.089844 13.65625 20.277344 13.839844 20.277344 14.070312zM20.277344 17.378906C20.277344 17.609375 20.089844 17.792969 19.863281 17.792969 19.632812 17.792969 19.449219 17.609375 19.449219 17.378906 19.449219 17.152344 19.632812 16.964844 19.863281 16.964844 20.089844 16.964844 20.277344 17.152344 20.277344 17.378906zM18.621094 19.035156C18.621094 19.261719 18.433594 19.449219 18.207031 19.449219 17.976562 19.449219 17.792969 19.261719 17.792969 19.035156 17.792969 18.804688 17.976562 18.621094 18.207031 18.621094 18.433594 18.621094 18.621094 18.804688 18.621094 19.035156zM21.929688 9.101562C21.929688 9.332031 21.746094 9.515625 21.515625 9.515625 21.289062 9.515625 21.101562 9.332031 21.101562 9.101562 21.101562 8.875 21.289062 8.691406 21.515625 8.691406 21.746094 8.691406 21.929688 8.875 21.929688 9.101562zM21.929688 12.414062C21.929688 12.640625 21.746094 12.828125 21.515625 12.828125 21.289062 12.828125 21.101562 12.640625 21.101562 12.414062 21.101562 12.183594 21.289062 12 21.515625 12 21.746094 12 21.929688 12.183594 21.929688 12.414062zM21.929688 15.722656C21.929688 15.953125 21.746094 16.136719 21.515625 16.136719 21.289062 16.136719 21.101562 15.953125 21.101562 15.722656 21.101562 15.496094 21.289062 15.308594 21.515625 15.308594 21.746094 15.308594 21.929688 15.496094 21.929688 15.722656zM21.929688 15.722656"/>
</svg>

<svg xmlns="http://www.w3.org/2000/svg" width="32" height="32" viewBox="0 0 24 24">
    <path d="M12 0c-.777 0-1.535.078-2.27.219L9.723.215l-.078.02c-.008 0-.016 0-.024.003l-.21.047c-.118.028-.24.05-.352.082a3.336 3.336 0 0 0-.188.051c-.125.031-.25.066-.375.105-.05.016-.101.032-.156.047-.133.047-.27.09-.402.137-.04.016-.079.031-.118.043-.148.059-.297.117-.441.176l-.074.031c-.168.07-.336.148-.504.227-.7.34-1.36.742-1.973 1.203-.004 0-.008.004-.012.004-.14.109-.28.218-.418.332l-.07.058a7.833 7.833 0 0 0-.336.293 8.9 8.9 0 0 0-.387.363c-.046.043-.093.09-.136.133-.078.078-.153.16-.227.239-.054.058-.11.113-.16.171a6.513 6.513 0 0 0-.156.184c-.399.457-.758.945-1.082 1.457-.004.004-.004.008-.008.008a15.294 15.294 0 0 0-.262.441A11.817 11.817 0 0 0 .207 9.8c-.016.067-.023.13-.035.196-.02.11-.035.219-.05.328l-.036.258c-.012.094-.02.188-.031.285-.012.11-.016.223-.024.336A9.392 9.392 0 0 0 0 12a9.392 9.392 0 0 0 .031.797c.004.113.012.226.024.336.007.097.02.191.03.285.013.086.024.172.036.262.016.105.031.215.05.324.013.066.02.129.036.195a12.465 12.465 0 0 0 .098.485 11.95 11.95 0 0 0 1.27 3.246c.003.004.003.011.007.015.082.145.168.285.254.426.004 0 .004.004.008.008.324.512.683 1 1.078 1.457l.16.184c.05.058.106.113.16.171.074.079.149.16.227.239l.133.133a17.563 17.563 0 0 0 .39.363c.11.101.223.199.336.293l.07.058a17.306 17.306 0 0 0 .43.34c.613.457 1.274.86 1.973 1.2.168.078.336.156.504.226.023.012.047.02.07.031l.445.176c.04.012.078.027.117.043.133.047.27.09.403.137.055.015.105.03.156.047.125.039.25.074.375.105.063.02.125.035.188.05.113.032.23.06.351.083l.211.047a.05.05 0 0 0 .024.004l.078.02.007-.005c.735.14 1.493.219 2.27.219 6.617 0 12-5.383 12-12S18.617 0 12 0zm6.621 12c0 5.285-3.738 9.871-8.894 10.938-.008 0-.016-.004-.024-.004a11.994 11.994 0 0 1-.84-.211c-.043-.016-.09-.028-.133-.04a9.548 9.548 0 0 1-.753-.265l-.211-.082a8.293 8.293 0 0 1-.684-.309 6.12 6.12 0 0 1-.227-.113 17.08 17.08 0 0 1-.644-.36c-.063-.038-.121-.081-.184-.12a9.74 9.74 0 0 1-.53-.36l-.169-.117a11.401 11.401 0 0 1-.594-.48l-.156-.133a12.387 12.387 0 0 1-.672-.653 14.55 14.55 0 0 1-.562-.636c-.004-.004-.004-.008-.008-.012a11.176 11.176 0 0 1-1.055-1.54V17.5a11.206 11.206 0 0 1-1.273-3.508c-.004-.031-.012-.062-.016-.094-.05-.285-.09-.578-.117-.87-.004-.04-.004-.083-.008-.122-.023-.3-.039-.601-.039-.906 0-.305.016-.605.04-.906.003-.04.003-.078.007-.117.027-.297.066-.586.117-.875.004-.032.012-.063.016-.094.226-1.246.664-2.43 1.273-3.508v-.004c.309-.539.66-1.055 1.055-1.539 0-.004.004-.008.008-.012.18-.218.367-.43.562-.636l.106-.106a10.587 10.587 0 0 1 .722-.68c.196-.164.391-.328.594-.48.055-.04.113-.078.168-.117a9.74 9.74 0 0 1 .531-.36l.184-.117c.21-.129.426-.246.644-.36.075-.038.153-.077.227-.116.223-.11.45-.211.684-.309l.21-.082c.247-.098.497-.184.754-.266l.133-.035c.278-.082.555-.152.84-.215.008 0 .016-.004.02-.004C14.883 2.13 18.62 6.715 18.62 12zM12 23.172c-.055 0-.105-.004-.156-.004 4.508-1.773 7.605-6.184 7.605-11.168 0-2.816-.992-5.45-2.668-7.527a.406.406 0 0 0 .184-.336.414.414 0 0 0-.414-.414.43.43 0 0 0-.301.132c-.344-.37-.71-.722-1.102-1.05a.421.421 0 0 0 .16-.32.411.411 0 0 0-.785-.176 12.075 12.075 0 0 0-2.68-1.477c.052 0 .102-.004.157-.004 2.121 0 4.105.594 5.8 1.625-.003.012-.007.02-.007.031 0 .227.184.414.414.414.07 0 .129-.023.188-.05.425.297.828.62 1.207.976a.404.404 0 0 0-.153.313c0 .23.184.414.414.414a.404.404 0 0 0 .313-.153c.355.38.68.782.976 1.207a.432.432 0 0 0-.05.188c0 .23.187.414.414.414.011 0 .02-.004.03-.008a11.093 11.093 0 0 1 1.505 4.172.407.407 0 0 0-.293.387c0 .219.168.39.379.406a9.9 9.9 0 0 1 .035.836c0 .57-.043 1.133-.125 1.68a.412.412 0 0 0-.29.39c0 .13.063.239.157.313-1.098 5.02-5.57 8.789-10.914 8.789zm0 0"/>
    <path d="M16.965 20.691c0 .227-.184.41-.414.41a.413.413 0 0 1-.414-.41.414.414 0 0 1 .828 0zm0 0M15.309 22.344a.412.412 0 1 1-.824 0c0-.227.183-.414.413-.414.227 0 .41.187.41.414zm0 0M18.621 5.793a.414.414 0 1 1-.828 0 .414.414 0 0 1 .828 0zm0 0M20.277 7.45a.414.414 0 1 1-.828 0 .414.414 0 0 1 .828 0zm0 0M20.277 10.758a.414.414 0 1 1-.828 0 .414.414 0 0 1 .828 0zm0 0M20.277 14.07a.414.414 0 1 1-.828 0 .414.414 0 0 1 .828 0zm0 0M20.277 17.379a.414.414 0 1 1-.828 0 .414.414 0 0 1 .828 0zm0 0M18.621 19.035a.414.414 0 1 1-.828 0 .414.414 0 0 1 .828 0zm0 0M21.93 9.102a.414.414 0 0 1-.828 0c0-.227.187-.41.414-.41.23 0 .414.183.414.41zm0 0M21.93 12.414a.414.414 0 1 1-.829 0 .414.414 0 0 1 .829 0zm0 0M21.93 15.723a.414.414 0 1 1-.828 0 .414.414 0 0 1 .828 0zm0 0"/>
</svg>
